;FLAVOR:Marlin
;TIME:1168.16
;Filament used:0.887688m
;Layer height: 0.2
;MINX:0.423
;MINY:0.427
;MINZ:0.2
;MAXX:210.851
;MAXY:217.825
;MAXZ:0.2
;OuterWall Time:112.982
;InnerWall Time:112.731
;Skin Time:880.597
;Support Time:0
;SkirtBrim Time:0
;Infill Time:0
;InfillSupport Time:0
;Combing Time:12.1076
;Retraction Time:49.7386
;PrimeTower Time:0

;
;
;
;
;
;
;
;
;
;
;
;
;
;
;
;
;
;
;
;
;
;
;
;
;
;
;
;
;
;
;
;
;
;
;
;
;
;
;
;
;
;
;
;
;
;
;
;
;
;
;
;
;
reality Print GCode Generated by CXEngine
;CRSLICE_GIT_HASH:f50c479
;Creality Print Version : V4.3.6.6242
;CXEngine Release Time:2023-07-28 09:20:27
;Gcode Generated Time:2023-08-16 19:56:45
;----------Machine Config--------------
;Machine Name:Ender-3 V3 SE
;Machine Height:250
;Machine Width:220
;Machine Depth:220
;Material Type:PLA
;Material Name:CR-PLA_1.75
;Number of Extruders:1
;ExtruderParams[0] Nozzle Diameter:1000
;----------Profile Config---------------
;Layer Height:0.2
;Wall Thickness:0.8
;Top/Bottom Thickness:0.8
;Out Wall Line Width:0.4
;Inner Wall Line Width:0.4
;Inital Layer Height:200
;Wall Line Count:2
;Infill Line Distance:8
;Infill Pattern:grid
;Infill Sparse Density:10
;Infill Wipe Distance:0
;Print Temperature:205
;Bed Temperature:60
;Support Enable:false
;Support Density:15
;Support Angle:60
;Adhesion Type:autobrim
;machine is belt:false
;machine belt offset:10
;machine belt offset Y:0
;Raft Base Line Spacing:1.6
;Wait Heatup Sync:true
;Enable Ironing:false
;Material Type:PLA
;Max volumetric speed:20
;----------Shell Config----------------
;Outer Wall Wipe Distance:200
;Outer Inset First:false
;Infill Before Walls:false
;Infill Overlap:0.04
;Fill Gaps Between Walls:everywhere
;Minimum Infill Area:15
;Top Surface Skin Layer:0
;Top Layers:4
;Z Seam Alignment:sharpest_corner
;Seam Corner Preference:z_seam_corner_inner
;Z Seam X:110
;Z Seam Y:220
;Horizontal Expansion:0
;Top/Bottom Pattern:zigzag
;Ironing Pattern:zigzag
;Vase Model:false
;----------Support Config----------------
;Support Type:everywhere
;Support Pattern:zigzag
;Support Infill Layer Thickness:0.15
;Minimum Support Area:5
;Enable Support Roof:true
;Support Roof Thickness:0.8
;Support Roof Pattern:lines
;Connect Support Lines:0
;Connect Support ZigZags:1
;Minimum Support X/Y Distance:0.2
;Support Line Distance:2.67
; ---------PrintSpeed & Travel----------
;Enable Print Cool:true
;Avoid Printed Parts Traveling:true
;Enable Retraction:true
;Retraction Distance:0.8
;Retraction Speed:40
;Retraction Prime Speed:40
;Maximum Retraction Count:100
;Minimum Extrusion Distance Window:0.8
;Z Hop When Retracted:false
;Z Hop Height:0.2
;Retract Before Outer Wall:true

;Outer Wall Speed:60
;Inner Wall Speed:90
;Infill Speed:180
;Top/Bottom Speed:50
;Travel Speed:150
;Initial Layer Speed:30
;Skirt/Brim Speed:25
;Prime Tower Speed:60
;Outer Wall Acceleration:1000
;Inner Wall Acceleration:2000
;Infill Acceleration:2500
;Top/Bottom Acceleration:2500
;Travel Acceleration:2500
;Initial Layer Print Acceleration:500
;Initial Layer Travel Acceleration:500
;Skirt/Brim Acceleration:500
;Combing Mode:noskin
; --------SpecialModel&Mesh Fixes--------
;Union Overlapping Volum:true
;Remove All Holes:false
;Maximum Travel Resolution:0.25
;Maximum Deviation:0.05
;Maximum Model Angle:0.872767
;IS Mold Print:false
;Make Overhang Printable:false
;Enable Coasting:false
;Coasting Volumes:0.064
;Coasting Speed:0.9
;Raft AirGap:0.25
;Layer0 ZOverLap:0.13
;---------------------End of Head--------------------------
M140 S60
M105
M190 S60
M104 S205
M82 ;absolute extrusion mode
M220 S100 ;Reset Feedrate
M221 S100 ;Reset Flowrate

G28 ;Home

G92 E0 ;Reset Extruder
G1 Z2.0 F3000 ;Move Z Axis up
; G1 X10.1 Y20 Z0.28 F5000.0 ;Move to start position
G1 X220.1 Y20 Z0.28 F5000.0 ;Move to start position
M109 S205.000000
; G1 X10.1 Y145.0 Z0.28 F1500.0 E15 ;Draw the first line
; G1 X10.4 Y145.0 Z0.28 F5000.0 ;Move to side a little
; G1 X10.4 Y20 Z0.28 F1500.0 E30 ;Draw the second line
; 
; Moving the purge line to a differnt area, so that it doesn't interfere with the test print pattern
; If you want to change these values, you also need to move the start position above
G1 X220.1 Y145.0 Z0.28 F1500.0 E15 ;Draw the first line
G1 X220.4 Y145.0 Z0.28 F5000.0 ;Move to side a little
G1 X220.4 Y20 Z0.28 F1500.0 E30 ;Draw the second line

G92 E0  ;Reset Extruder
G1 E-1.0000 F1800 ;Retract a bit
G1 Z2.0 F3000 ;Move Z Axis up
G1 E0.0000 F1800 

G92 E0
G92 E0
G1 F2400 E-0.8
;LAYER_COUNT:1

;LAYER:0
M106 S0
M204 S500
;MESH:0_0
G0 F4800 X11.87 Y19.672 Z0.2
;TYPE:WALL-INNER
G1 F2400 E0
G1 F1800 X12.118 Y19.588 E0.00871
G1 X19.581 Y19.585 E0.2569
G1 X19.584 Y12.122 E0.50509
G1 X19.706 Y11.76 E0.51779
G1 X20.129 Y11.587 E0.53299
G1 X59.38 Y11.585 E1.83833
G1 X59.716 Y11.874 E1.85307
G1 X59.8 Y12.122 E1.86178
G1 X59.803 Y19.585 E2.10997
G1 X67.391 Y19.588 E2.36232
G1 X67.664 Y19.801 E2.37384
G1 X67.803 Y20.185 E2.38742
G1 X67.801 Y66.321 E3.92173
G1 X67.576 Y66.617 E3.93409
G1 X67.269 Y66.744 E3.94514
G1 X59.803 Y66.747 E4.19343
G1 X59.8 Y74.213 E4.44172
G1 X59.673 Y74.52 E4.45277
G1 X59.374 Y74.747 E4.46526
G1 X20.129 Y74.745 E5.7704
G1 X19.797 Y74.608 E5.78234
G1 X19.584 Y74.335 E5.79386
G1 X19.581 Y66.747 E6.04621
G1 X12.118 Y66.744 E6.2944
G1 X11.804 Y66.613 E6.30571
G1 X11.583 Y66.319 E6.31794
G1 X11.581 Y20.008 E7.85807
G1 X11.87 Y19.672 E7.87281
G0 F4800 X12.102 Y19.985
;TYPE:WALL-OUTER
G1 F1800 X19.981 Y19.985 E8.1296
G1 X19.983 Y12.155 E8.38479
G1 X20.164 Y11.986 E8.39286
G1 X59.259 Y11.985 E9.66701
G1 X59.403 Y12.174 E9.67475
G1 X59.403 Y19.985 E9.92932
G1 X67.233 Y19.987 E10.18451
G1 X67.403 Y20.083 E10.19087
G1 X67.402 Y66.165 E11.69274
G1 X67.234 Y66.345 E11.70076
G1 X59.403 Y66.347 E11.95598
G1 X59.401 Y74.178 E12.2112
G1 X59.305 Y74.347 E12.21754
G1 X20.122 Y74.346 E13.49455
G1 X19.981 Y74.19 E13.50141
G1 X19.981 Y66.347 E13.75702
G1 X12.129 Y66.34 E14.01293
G1 X12.055 Y66.303 E14.01562
G1 X11.982 Y66.204 E14.01963
G1 X11.981 Y20.127 E15.52133
G1 X12.102 Y19.985 E15.52741
G0 F4800 X12.302 Y19.985
;;retract;;
G1 F2400 E14.96741
G1 X14.302 Y19.985 E14.73941
G1 F2400 E14.72741
G0 F4800 X11.721 Y19.661
G0 X11.4 Y66.147
G0 X9.02 Y66.217
G0 X8.735 Y66.621
G1 F2400 E15.52741
G0 F4800 X8.821 Y66.199
;TYPE:WALL-INNER
G1 F1800 X8.823 Y20.016 E17.06329
G1 X8.601 Y19.719 E17.07562
G1 X8.286 Y19.588 E17.08696
G1 X0.823 Y19.585 E17.33515
G1 X0.823 Y0.827 E17.95897
G1 X19.581 Y0.827 E18.5828
G1 X19.584 Y8.29 E18.83099
G1 X19.715 Y8.605 E18.84233
G1 X20.011 Y8.825 E18.8546
G1 X59.38 Y8.827 E20.16386
G1 X59.716 Y8.538 E20.1786
G1 X59.8 Y8.29 E20.18731
G1 X59.803 Y0.827 E20.4355
G1 X78.561 Y0.827 E21.05932
G1 X78.564 Y8.29 E21.30751
G1 X78.695 Y8.605 E21.31886
G1 X78.991 Y8.825 E21.33112
G1 X125.35 Y8.827 E22.87285
G1 X125.686 Y8.538 E22.88759
G1 X125.77 Y8.29 E22.8963
G1 X125.773 Y0.827 E23.14449
G1 X144.531 Y0.827 E23.76831
G1 X144.534 Y8.29 E24.0165
G1 X144.665 Y8.605 E24.02784
G1 X144.961 Y8.825 E24.04011
G1 X191.27 Y8.827 E25.58017
G1 X191.606 Y8.538 E25.59491
G1 X191.69 Y8.29 E25.60362
G1 X191.693 Y0.827 E25.85181
G1 X210.451 Y0.827 E26.47563
G1 X210.451 Y19.585 E27.09945
G1 X202.988 Y19.588 E27.34764
G1 X202.74 Y19.672 E27.35635
G1 X202.451 Y20.008 E27.37109
G1 X202.453 Y66.199 E28.90723
G1 X202.626 Y66.621 E28.9224
G1 X202.988 Y66.744 E28.93511
G1 X210.451 Y66.747 E29.1833
G1 X210.451 Y85.505 E29.80712
G1 X202.988 Y85.508 E30.05532
G1 X202.74 Y85.592 E30.06402
G1 X202.451 Y85.928 E30.07876
G1 X202.453 Y132.119 E31.6149
G1 X202.626 Y132.541 E31.63007
G1 X202.988 Y132.664 E31.64278
G1 X210.451 Y132.667 E31.89098
G1 X210.451 Y151.425 E32.5148
G1 X202.988 Y151.428 E32.76299
G1 X202.74 Y151.512 E32.7717
G1 X202.451 Y151.848 E32.78643
G1 X202.453 Y198.119 E34.32523
G1 X202.626 Y198.541 E34.3404
G1 X202.988 Y198.664 E34.35312
G1 X210.451 Y198.667 E34.60131
G1 X210.451 Y206.067 E34.8474
G1 X210.451 Y217.425 E35.22513
G1 X191.693 Y217.425 E35.84895
G1 X191.69 Y209.962 E36.09714
G1 X191.606 Y209.714 E36.10585
G1 X191.27 Y209.425 E36.12059
G1 X145.079 Y209.427 E37.65673
G1 X144.656 Y209.6 E37.67192
G1 X144.534 Y209.962 E37.68463
G1 X144.531 Y217.425 E37.93282
G1 X125.773 Y217.425 E38.55664
G1 X125.77 Y209.962 E38.80483
G1 X125.686 Y209.714 E38.81354
G1 X125.35 Y209.425 E38.82828
G1 X79.109 Y209.427 E40.36608
G1 X78.686 Y209.6 E40.38128
G1 X78.564 Y209.962 E40.39398
G1 X78.561 Y217.425 E40.64218
G1 X59.803 Y217.425 E41.266
G1 X59.8 Y209.962 E41.51419
G1 X59.716 Y209.714 E41.52289
G1 X59.38 Y209.425 E41.53763
G1 X20.129 Y209.427 E42.84297
G1 X19.706 Y209.6 E42.85817
G1 X19.584 Y209.962 E42.87088
G1 X19.581 Y217.425 E43.11907
G1 X0.823 Y217.425 E43.74289
G1 X0.823 Y198.667 E44.36671
G1 X8.286 Y198.664 E44.6149
G1 X8.648 Y198.541 E44.62762
G1 X8.821 Y198.119 E44.64278
G1 X8.823 Y151.856 E46.18132
G1 X8.601 Y151.559 E46.19365
G1 X8.286 Y151.428 E46.20499
G1 X0.823 Y151.425 E46.45319
G1 X0.823 Y132.667 E47.07701
G1 X8.286 Y132.664 E47.3252
G1 X8.648 Y132.541 E47.33791
G1 X8.821 Y132.119 E47.35308
G1 X8.823 Y85.936 E48.88895
G1 X8.601 Y85.639 E48.90128
G1 X8.286 Y85.508 E48.91263
G1 X0.823 Y85.505 E49.16082
G1 X0.823 Y66.747 E49.78464
G1 X8.286 Y66.744 E50.03283
G1 X8.648 Y66.621 E50.04555
G1 X8.821 Y66.199 E50.06072
G0 F4800 X8.422 Y66.204
;TYPE:WALL-OUTER
G1 F1800 X8.423 Y20.127 E51.56242
G1 X8.303 Y19.986 E51.56845
G1 X0.423 Y19.985 E51.82527
G1 X0.423 Y0.427 E52.46269
G1 X19.981 Y0.427 E53.1001
G1 X19.982 Y8.248 E53.355
G1 X20.164 Y8.426 E53.3633
G1 X59.259 Y8.427 E54.63745
G1 X59.402 Y8.248 E54.64491
G1 X59.403 Y0.427 E54.89981
G1 X78.961 Y0.427 E55.53722
G1 X78.962 Y8.248 E55.79212
G1 X79.144 Y8.426 E55.80042
G1 X125.229 Y8.427 E57.30238
G1 X125.372 Y8.248 E57.30985
G1 X125.373 Y0.427 E57.56474
G1 X144.931 Y0.427 E58.20216
G1 X144.932 Y8.248 E58.45705
G1 X145.114 Y8.426 E58.46535
G1 X191.149 Y8.427 E59.96568
G1 X191.292 Y8.248 E59.97315
G1 X191.293 Y0.427 E60.22804
G1 X210.851 Y0.427 E60.86546
G1 X210.851 Y19.985 E61.50288
G1 X202.971 Y19.986 E61.7597
G1 X202.851 Y20.127 E61.76573
G1 X202.852 Y66.204 E63.26743
G1 X203.03 Y66.346 E63.27485
G1 X210.851 Y66.347 E63.52975
G1 X210.851 Y85.905 E64.16717
G1 X202.971 Y85.906 E64.42398
G1 X202.851 Y86.047 E64.43002
G1 X202.852 Y132.124 E65.93172
G1 X203.03 Y132.266 E65.93914
G1 X210.851 Y132.267 E66.19403
G1 X210.851 Y151.825 E66.83145
G1 X202.971 Y151.826 E67.08827
G1 X202.851 Y151.967 E67.0943
G1 X202.852 Y198.124 E68.59861
G1 X203.03 Y198.266 E68.60603
G1 X210.851 Y198.267 E68.86093
G1 X210.851 Y206.067 E69.11514
G1 X210.851 Y217.825 E69.49835
G1 X191.293 Y217.825 E70.13576
G1 X191.292 Y210.004 E70.39066
G1 X191.149 Y209.825 E70.39813
G1 X145.114 Y209.826 E71.89846
G1 X144.932 Y210.004 E71.90675
G1 X144.931 Y217.825 E72.16165
G1 X125.373 Y217.825 E72.79907
G1 X125.372 Y210.004 E73.05396
G1 X125.229 Y209.825 E73.06143
G1 X79.144 Y209.826 E74.56339
G1 X78.962 Y210.004 E74.57169
G1 X78.961 Y217.825 E74.82658
G1 X59.403 Y217.825 E75.464
G1 X59.402 Y210.004 E75.7189
G1 X59.259 Y209.825 E75.72636
G1 X20.164 Y209.826 E77.00051
G1 X19.982 Y210.004 E77.00881
G1 X19.981 Y217.825 E77.2637
G1 X0.423 Y217.825 E77.90112
G1 X0.423 Y198.267 E78.53854
G1 X8.244 Y198.266 E78.79343
G1 X8.422 Y198.124 E78.80085
G1 X8.423 Y151.967 E80.30516
G1 X8.303 Y151.826 E80.3112
G1 X0.423 Y151.825 E80.56802
G1 X0.423 Y132.267 E81.20543
G1 X8.244 Y132.266 E81.46033
G1 X8.422 Y132.124 E81.46775
G1 X8.423 Y86.047 E82.96945
G1 X8.303 Y85.906 E82.97548
G1 X0.423 Y85.905 E83.2323
G1 X0.423 Y66.347 E83.86972
G1 X8.244 Y66.346 E84.12461
G1 X8.422 Y66.204 E84.13204
G0 F4800 X8.422 Y66.004
;;retract;;
G1 F2400 E83.57204
G1 X8.422 Y64.004 E83.34404
G1 F2400 E83.33204
G0 F4800 X8.735 Y66.621
G0 X8.382 Y66.931
G0 X12.013 Y85.343
G0 X11.87 Y85.592
;TYPE:WALL-INNER
G1 F2400 E84.13204
G1 F1800 X12.118 Y85.508 E84.14074
G1 X19.581 Y85.505 E84.38893
G1 X19.584 Y77.917 E84.64128
G1 X19.797 Y77.644 E84.6528
G1 X20.129 Y77.507 E84.66474
G1 X59.374 Y77.505 E85.96988
G1 X59.673 Y77.732 E85.98237
G1 X59.8 Y78.039 E85.99342
G1 X59.803 Y85.505 E86.24171
G1 X67.269 Y85.509 E86.49
G1 X67.51 Y85.589 E86.49844
G1 X67.803 Y85.927 E86.51332
G1 X67.801 Y132.241 E88.05355
G1 X67.576 Y132.537 E88.06592
G1 X67.269 Y132.664 E88.07696
G1 X59.803 Y132.667 E88.32526
G1 X59.8 Y140.133 E88.57355
G1 X59.673 Y140.44 E88.58459
G1 X59.374 Y140.667 E88.59708
G1 X20.129 Y140.665 E89.90222
G1 X19.797 Y140.528 E89.91417
G1 X19.584 Y140.255 E89.92568
G1 X19.581 Y132.667 E90.17803
G1 X12.118 Y132.664 E90.42622
G1 X11.756 Y132.541 E90.43894
G1 X11.583 Y132.119 E90.4541
G1 X11.581 Y85.928 E91.99024
G1 X11.87 Y85.592 E92.00498
G0 F4800 X12.102 Y85.905
;TYPE:WALL-OUTER
G1 F1800 X19.981 Y85.905 E92.26177
G1 X19.983 Y78.075 E92.51695
G1 X20.164 Y77.906 E92.52503
G1 X59.305 Y77.905 E93.80067
G1 X59.401 Y78.074 E93.80701
G1 X59.403 Y85.905 E94.06223
G1 X67.225 Y85.906 E94.31716
G1 X67.403 Y86.001 E94.32373
G1 X67.402 Y132.085 E95.82566
G1 X67.234 Y132.265 E95.83369
G1 X59.403 Y132.267 E96.08891
G1 X59.401 Y140.098 E96.34413
G1 X59.305 Y140.267 E96.35046
G1 X20.122 Y140.266 E97.62748
G1 X19.981 Y140.11 E97.63434
G1 X19.981 Y132.267 E97.88995
G1 X12.129 Y132.26 E98.14585
G1 X11.982 Y132.124 E98.15238
G1 X11.981 Y86.047 E99.65408
G1 X12.102 Y85.905 E99.66016
G0 F4800 X12.302 Y85.905
;;retract;;
G1 F2400 E99.10016
G1 X14.302 Y85.905 E98.87216
G1 F2400 E98.86016
G0 F4800 X11.721 Y85.581
G0 X67.348 Y85.705
G0 X70.38 Y86.106
G0 X70.702 Y85.719
;TYPE:WALL-INNER
G1 F2400 E99.66016
G1 F1800 X70.94 Y85.547 E99.66993
G1 X71.068 Y85.512 E99.67434
G1 X71.126 Y85.506 E99.67628
G1 X78.561 Y85.505 E99.92354
G1 X78.562 Y77.92 E100.17579
G1 X78.775 Y77.646 E100.18733
G1 X79.109 Y77.507 E100.19936
G1 X125.344 Y77.505 E101.73696
G1 X125.643 Y77.732 E101.74945
G1 X125.77 Y78.039 E101.7605
G1 X125.773 Y85.505 E102.00879
G1 X133.358 Y85.506 E102.26104
G1 X133.632 Y85.719 E102.27258
G1 X133.773 Y86.105 E102.28624
G1 X133.771 Y132.241 E103.82055
G1 X133.546 Y132.537 E103.83292
G1 X133.239 Y132.664 E103.84397
G1 X125.773 Y132.667 E104.09226
G1 X125.77 Y140.133 E104.34055
G1 X125.643 Y140.44 E104.3516
G1 X125.344 Y140.667 E104.36408
G1 X79.109 Y140.665 E105.90169
G1 X78.775 Y140.526 E105.91372
G1 X78.562 Y140.169 E105.92754
G1 X78.561 Y132.667 E106.17703
G1 X71.095 Y132.664 E106.42532
G1 X70.788 Y132.537 E106.43637
G1 X70.563 Y132.241 E106.44874
G1 X70.561 Y86.105 E107.98305
G1 X70.702 Y85.719 E107.99671
G0 F4800 X70.961 Y86.003
;TYPE:WALL-OUTER
G1 F1800 X71.13 Y85.907 E108.00305
G1 X78.961 Y85.905 E108.25827
G1 X78.963 Y78.074 E108.51349
G1 X79.144 Y77.906 E108.52154
G1 X125.275 Y77.905 E110.025
G1 X125.371 Y78.074 E110.03133
G1 X125.373 Y85.905 E110.28655
G1 X133.204 Y85.907 E110.54178
G1 X133.373 Y86.003 E110.54811
G1 X133.372 Y132.085 E112.04997
G1 X133.204 Y132.265 E112.058
G1 X125.373 Y132.267 E112.31322
G1 X125.371 Y140.098 E112.56844
G1 X125.275 Y140.267 E112.57478
G1 X79.055 Y140.266 E114.08114
G1 X78.961 Y140.079 E114.08796
G1 X78.961 Y132.267 E114.34256
G1 X71.13 Y132.265 E114.59778
G1 X70.962 Y132.085 E114.60581
G1 X70.961 Y86.003 E116.10767
G0 F4800 X71.13 Y85.907
G0 X71.136 Y85.907
;;retract;;
G1 F2400 E115.54767
G1 X71.13 Y85.907 E115.54699
G1 X73.123 Y85.907 E115.31967
G1 F2400 E115.30767
G0 F4800 X70.732 Y85.552
G0 X78.72 Y85.57
G0 X78.725 Y77.945
G0 X79.001 Y77.669
G0 X125.333 Y77.669
G0 X125.609 Y77.945
G0 X125.612 Y85.685
G0 X133.318 Y85.705
G0 X136.35 Y86.106
G0 X136.623 Y85.627
G1 F2400 E116.10767
G0 F4800 X136.531 Y85.927
;TYPE:WALL-INNER
G1 F1800 X136.824 Y85.589 E116.12255
